public/images/icons/Spring Boot.svg

<svg width="199" height="198" viewBox="0 0 199 198" fill="none" xmlns="http://www.w3.org/2000/svg">
<path d="M9.4524 79.4121C21.1792 60.5314 31.6978 40.8021 43.1758 21.8507C47.2032 15.18 53.5878 11.7975 62.3296 11.7032C91.6821 11.3732 117.232 11.4439 138.98 11.9154C147.047 12.0568 153.976 17.8907 157.85 24.6793C169.316 44.88 181.279 65.5757 193.741 86.7664C198.455 94.8279 198.455 102.948 193.741 111.128C180.569 133.897 168.167 155.241 156.535 175.159C152.176 182.608 145.104 186.356 135.32 186.403C109.971 186.474 85.6173 186.462 62.2585 186.367C52.9481 186.332 45.6633 181.17 41.3279 173.568C28.7246 151.6 16.4411 130.338 4.4774 109.784C-1.67027 99.2121 3.30473 89.3121 9.4524 79.4121ZM107.069 47.9443C107.069 46.9878 106.88 46.0407 106.512 45.157C106.144 44.2733 105.605 43.4704 104.925 42.794C104.245 42.1177 103.438 41.5812 102.55 41.2151C101.662 40.8491 100.71 40.6607 99.7487 40.6607H98.7537C97.7923 40.6607 96.8404 40.8491 95.9523 41.2151C95.0641 41.5812 94.2571 42.1177 93.5774 42.794C92.8976 43.4704 92.3584 44.2733 91.9905 45.157C91.6227 46.0407 91.4333 46.9878 91.4333 47.9443V96.03C91.4333 97.9617 92.2046 99.8143 93.5774 101.18C94.9502 102.546 96.8122 103.314 98.7537 103.314H99.7487C101.69 103.314 103.552 102.546 104.925 101.18C106.298 99.8143 107.069 97.9617 107.069 96.03V47.9443ZM138.696 96.8079C138.056 131.953 93.7787 147.828 70.716 122.972C57.8994 109.159 55.9568 93.2839 64.8881 75.3461C67.4112 70.2546 72.4572 66.9311 76.1885 62.6882C78.368 60.2604 78.7115 57.585 77.219 54.6621C76.9347 54.12 76.5675 53.6368 76.1174 53.2125C73.2035 50.5725 70.1593 50.4311 66.9847 52.7882C41.7899 71.5629 38.1297 106.885 58.7049 130.609C79.0669 154.016 115.42 155.289 136.955 133.296C160.728 109.041 157.601 72.9771 130.594 52.3993C128.13 50.5136 125.619 50.4546 123.06 52.2225C121.378 53.4011 120.276 55.11 119.755 57.3493C119.513 58.4071 119.578 59.5095 119.944 60.5252C120.309 61.5408 120.959 62.4267 121.816 63.0771C133.33 71.9164 138.956 83.16 138.696 96.8079Z" fill="#6DB33F"/>
</svg>

<svg width="199" height="198" fill="none" xmlns="http://www.w3.org/2000/svg"><path d="M9.452 79.412c11.727-18.88 22.246-38.61 33.724-57.561 4.027-6.671 10.412-10.053 19.154-10.148 29.352-.33 54.902-.26 76.65.212 8.067.142 14.996 5.976 18.87 12.764a4672.543 4672.543 0 0 0 35.891 62.087c4.714 8.062 4.714 16.182 0 24.362a18112.037 18112.037 0 0 1-37.206 64.031c-4.359 7.449-11.431 11.197-21.215 11.244-25.349.071-49.703.059-73.061-.036-9.31-.035-16.596-5.197-20.931-12.799a11777.65 11777.65 0 0 0-36.85-63.784C-1.67 99.212 3.304 89.312 9.451 79.412Zm97.617-31.468a7.25 7.25 0 0 0-2.144-5.15 7.33 7.33 0 0 0-5.176-2.133h-.995a7.353 7.353 0 0 0-5.177 2.133 7.253 7.253 0 0 0-2.144 5.15V96.03c0 1.932.772 3.784 2.144 5.15a7.34 7.34 0 0 0 5.177 2.134h.995a7.34 7.34 0 0 0 5.176-2.134 7.263 7.263 0 0 0 2.144-5.15V47.944Zm31.627 48.864c-.64 35.145-44.917 51.02-67.98 26.164-12.817-13.813-14.76-29.688-5.828-47.626 2.523-5.091 7.57-8.415 11.3-12.658 2.18-2.428 2.523-5.103 1.031-8.026a5.474 5.474 0 0 0-1.102-1.45c-2.913-2.64-5.958-2.78-9.132-.424-25.195 18.775-28.855 54.097-8.28 77.821 20.362 23.407 56.715 24.68 78.25 2.687 23.773-24.255 20.646-60.319-6.361-80.897-2.464-1.885-4.975-1.944-7.534-.177-1.682 1.18-2.784 2.888-3.305 5.127a5.65 5.65 0 0 0 .189 3.176 5.564 5.564 0 0 0 1.872 2.552c11.514 8.84 17.14 20.083 16.88 33.73Z" fill="#6DB33F"/></svg>
